src/icons/IconMaxWidth/IconMaxWidth_size_s.svg

<svg width="16" height="16" viewBox="0 0 16 16" xmlns="http://www.w3.org/2000/svg">
  <path
    d="M2 2V7.57143L5 5V7H11V5L14 7.57143V2H16V14H14V8.42857L11 11V9H5V11L2 8.42857V14H0V2H2Z"
  />
</svg>

<svg viewBox="0 0 16 16" xmlns="http://www.w3.org/2000/svg">
  <path d="M2 2v5.571L5 5v2h6V5l3 2.571V2h2v12h-2V8.429L11 11V9H5v2L2 8.429V14H0V2h2z" />
</svg>
